X:1
T:Song of Heaven
T:Song of Heaven
T:Robert Lowry
T:C. B. Stout, 1875
T:Public Domain Courtesy of the Cyber Hymnal™
C:Robert Lowry
Z:Public Domain
Z:Courtesy of the Cyber Hymnal™
%%score ( 1 2 ) ( 3 4 )
L:1/8
Q:1/4=91
M:3/4
K:Eb
V:1 treble 
V:2 treble 
V:3 bass 
V:4 bass 
V:1
 E[EG] [FA] | [GB]3 [EB] [Ec][EB] | (B2 G)[EG] [EG][DF] | [FA]3 [FA] [FA][EG] | %4
w: 1.~When, on earth’s|dark and storm- y|shore, * Wild bil- lows|beat, and tem- pests|
w: 2.~When tri- als|come, and plea- sures|go, * When hearts are|crushed, and hot tears|
w: 3.~When hea- vy|bur- dens press the|soul, * And all the|surg- es o’er us|
w: 4.~At last, when|heart and flesh shall|fail, * And we must|pass the sha- dowy|
 [EB]3 [EB] [EG][GB] | [Ge]3 [Bd] [Ac][GB] | ([GB]2 [EG])[EG] [FA][GB] | [Ac]3 [ce] [Bd][Ac] | %8
w: roar, ’Tis sweet to|lift our thoughts a-|bove, * To realms of|peace, of light and|
w: flow, How pre- cious|then the hour of|prayer, * The rest of|faith, that all may|
w: roll, A- mid our|sor- row light ap-|pears; * Faith bids the|mourn- er dry his|
w: vale, Oh, then, blest|Sav- ior, be our|stay, * And bring us|to e- ter- nal|
 [GB][EG] [EB]2 E2 | [DF]4 [DF]2 | ([DF]3 [FA]) ([EG][DF]) | E3 |] %12
w: love, A- way in|Heav’n, a-|way * in *|Heav’n.|
w: share, And hope of|Heav’n, and|hope * of *|Heav’n.|
w: tears, And look to|Heav’n, and|look * to *|Heav’n.|
w: day, The day of|Heav’n, the|day * of *|Heav’n.|
V:2
 E x2 | x6 | E3 x3 | x6 | x6 | x6 | x6 | x6 | x4 E2 | x6 | x6 | E3 |] %12
V:3
 [E,G,][E,B,] [E,B,] | [E,B,]3 [E,G,] [E,A,][E,G,] | (G,2 B,)[E,B,] [B,,B,][B,,B,] | %3
 [B,,B,]3 [B,,B,] [E,B,][E,B,] | [E,G,]3 [E,G,] [E,B,][E,B,] | [E,B,]3 [E,E] [E,E][E,E] | %6
 (E2 B,)[E,B,] [E,B,][E,E] | [A,E]3 [A,E] [A,E][A,E] | [E,E][E,B,] [E,G,]2 (G,=A,) | %9
 [B,,B,]4 [B,,B,]2 | ([B,,B,]3 [B,,B,]) ([B,,B,][B,,B,]) | [E,G,]3 |] %12
V:4
 x3 | x6 | E,3 x3 | x6 | x6 | x6 | E,3 x3 | x6 | x4 C,2 | x6 | x6 | x3 |] %12

